local/share/icons/dracula-icons-main/16/devices/drive-multipartition.svg

<?xml version="1.0" encoding="UTF-8"?>
<svg xmlns="http://www.w3.org/2000/svg" xmlns:xlink="http://www.w3.org/1999/xlink" width="16" height="16" viewBox="0 0 16 16">
<defs>
<filter id="filter-remove-color" x="0%" y="0%" width="100%" height="100%">
<feColorMatrix color-interpolation-filters="sRGB" values="0 0 0 0 1 0 0 0 0 1 0 0 0 0 1 0 0 0 1 0" />
</filter>
<mask id="mask-0">
<g filter="url(#filter-remove-color)">
<rect x="-1.6" y="-1.6" width="19.2" height="19.2" fill="rgb(0%, 0%, 0%)" fill-opacity="0.35"/>
</g>
</mask>
<clipPath id="clip-0">
<rect x="0" y="0" width="16" height="16"/>
</clipPath>
<g id="source-13164" clip-path="url(#clip-0)">
<path fill-rule="nonzero" fill="rgb(44.705882%, 44.705882%, 44.705882%)" fill-opacity="1" d="M 3 8 C 3 10.761719 5.238281 13 8 13 L 8 8 Z M 3 8 "/>
</g>
<mask id="mask-1">
<g filter="url(#filter-remove-color)">
<rect x="-1.6" y="-1.6" width="19.2" height="19.2" fill="rgb(0%, 0%, 0%)" fill-opacity="0.75"/>
</g>
</mask>
<clipPath id="clip-1">
<rect x="0" y="0" width="16" height="16"/>
</clipPath>
<g id="source-13168" clip-path="url(#clip-1)">
<path fill-rule="nonzero" fill="rgb(44.705882%, 44.705882%, 44.705882%)" fill-opacity="1" d="M 13 8 C 13 10.761719 10.761719 13 8 13 L 8 8 Z M 13 8 "/>
</g>
</defs>
<path fill-rule="nonzero" fill="rgb(44.705882%, 44.705882%, 44.705882%)" fill-opacity="1" d="M 8 1 C 4.132812 1 1 4.132812 1 8 C 1 11.867188 4.132812 15 8 15 C 11.867188 15 15 11.867188 15 8 C 15 4.132812 11.867188 1 8 1 Z M 8 3 L 8 8 L 13 8 C 13 10.761719 10.761719 13 8 13 C 5.238281 13 3 10.761719 3 8 C 3 7.832031 3.007812 7.667969 3.027344 7.5 C 3.28125 4.945312 5.433594 3 8 3 Z M 8 3 "/>
<g mask="url(#mask-0)">
<use xlink:href="#source-13164"/>
</g>
<g mask="url(#mask-1)">
<use xlink:href="#source-13168"/>
</g>
</svg>

<svg xmlns="http://www.w3.org/2000/svg" width="16" height="16" version="1.1" viewBox="0 0 16 16">
 <defs>
  <style id="current-color-scheme" type="text/css">
   .ColorScheme-Text { color:#727272; } .ColorScheme-Highlight { color:#5294e2; }
  </style>
 </defs>
 <path style="fill:currentColor" class="ColorScheme-Text"  d="m8 1a7 7 0 0 0-7 7 7 7 0 0 0 7 7 7 7 0 0 0 7-7 7 7 0 0 0-7-7zm0 2v5h5a5 5 0 0 1-5 5 5 5 0 0 1-5-5 5 5 0 0 1 0.025391-0.5 5 5 0 0 1 4.9746-4.5z"/>
 <g style="fill:currentColor" class="ColorScheme-Text" >
  <path d="M3 8a5 5 0 0 0 5 5V8z" opacity=".35"/>
  <path d="M13 8a5 5 0 0 1-5 5V8z" opacity=".75"/>
 </g>
</svg>
